assets/wikiquote/mono.svg

<svg viewBox="0 0 24 24" xmlns="http://www.w3.org/2000/svg"><path d="m10.152 12a4.037 4.037 0 1 1 -8.075 0 4.037 4.037 0 0 1 8.075 0zm7.14-11.178c-.286-.287-.581-.56-.885-.822l-1.528 1.527c2.993 2.509 4.899 6.273 4.899 10.473s-1.906 7.964-4.899 10.473l1.528 1.527c.304-.262.6-.535.886-.822a15.705 15.705 0 0 0 4.63-11.178c0-4.223-1.644-8.192-4.63-11.178zm-3.784 2.078-1.478 1.477a9.642 9.642 0 0 1 0 15.246l1.477 1.477a11.712 11.712 0 0 0 0-18.2zm-2.735 2.735-1.424 1.422c1.61 1.057 2.675 2.878 2.675 4.943s-1.065 3.886-2.675 4.943l1.423 1.422a7.884 7.884 0 0 0 3.233-6.365 7.884 7.884 0 0 0 -3.233-6.365z"/></svg>

<svg xmlns="http://www.w3.org/2000/svg" viewBox="0 0 24 24"><path d="M10.152 12a4.037 4.037 0 1 1-8.075 0 4.037 4.037 0 0 1 8.075 0M17.292.822q-.429-.43-.885-.822l-1.528 1.527C17.872 4.036 19.778 7.8 19.778 12s-1.906 7.964-4.899 10.473L16.407 24q.457-.392.886-.822A15.7 15.7 0 0 0 21.923 12c0-4.223-1.644-8.192-4.63-11.178zM13.508 2.9 12.03 4.377a9.642 9.642 0 0 1 0 15.246l1.477 1.477a11.712 11.712 0 0 0 0-18.2zm-2.735 2.735L9.349 7.057c1.61 1.057 2.675 2.878 2.675 4.943s-1.065 3.886-2.675 4.943l1.423 1.422A7.88 7.88 0 0 0 14.005 12a7.88 7.88 0 0 0-3.233-6.365z"/></svg>
